!!!!SEGMENT: pl-kk--kk-i-38--025_lasso-orlando-di--venite-ad-me-omnes.krn
!!!cenid: 16xx:1275
!!!COM: Lasso, Orlando di
!!!COM-rismID: pe506
!!!CDT: ~1532-1594/06/14
!!!CNT: French-Flemish
!!!OTL: Venite ad me omnes
!!!PDT:
!!!AGN: Sacred
!!!SMS-siglum: PL-Kk
!!!SMS-shelfmark: Kk.I.38
!!!SMS-shelfwork: 025 W
!!!SMS-variant:
!!!SMS-altvar:
!!!NIFC-rismSourceID: 1001153210
!!!NIFC-rismChildID: 1001154424
!!!NIFC-islandoraID: pl-kk:2701
!!!URL-pdf-islandora: https://repozytorium.nifc.pl/islandora/object/pl-kk%3A2701/datastream/PDF/view
!!!URL-scan: https://polish.musicsources.pl/pl/lokalizacje/galeria/rekopisy/5992 @EN{Scan on Polish Music Sources Website} @PL{Skany w portalu Dziedzictwo Muzyki Polskiej w otwartym dostępie}
!!!IIIF:
!!!ONB-nifc: Lib. 4. Fol. 7. 2da parte (jeśli występuje), należy do utworu tytułowego
!!!AIN: 1 empty
!!!key:
**kern	**text
*Iempty	*
*I"Baſso Ripieno.	*
*I'B rip	*
*clefF4	*
*k[b-]	*
*g:	*
*M2/1	*
*met(C|)	*
=1-	=1-
!LO:TX:a:t=Lib. 4. Fol. 7.	!
!LO:TX:t=P:problem=przy kluczu BB- B-	!
00r	.
=2-	=2-
.	.
=3-	=3-
!LO:TX:t=P:problem=kreska pseudotaktowa	!
1r	.
1GG	Ve-
=4-	=4-
2.BB-/	-ni-
!LO:TX:t=P:problem=kreska pseudotaktowa	!
4C/	.
4D/	.
4E/	.
!LO:TX:t=P:problem=kreska pseudotaktowa	!
[2D/	.
=5-	=5-
!LO:N:xstem:cue	!
4D/]	.
4C/	.
4BB-/	.
4AA/	.
2GG/	.
!LO:TX:t=P:problem=kreska pseudotaktowa	!
2GG/	-te
=6-	=6-
2r	.
*2\right	*
2D\	Ve-
2.F\	-ni-
!LO:TX:t=P:problem=kreska pseudotaktowa	!
4G\	.
=7-	=7-
4A\	.
4B-\	.
2.A\	.
4G\	.
4F\	.
!LO:TX:t=P:problem=kreska pseudotaktowa	!
4E\	.
=8-	=8-
4D/	.
4C/	.
4BB-/	.
!LO:TX:t=P:problem=kreska pseudotaktowa	!
4D/	.
1C	.
=9-	=9-
!LO:TX:t=P:problem=kreska pseudotaktowa	!
1BB-,<	-te
1.B-	ad
=10-	=10-
.	.
!LO:TX:t=P:problem=kreska pseudotaktowa	!
2A\	me
0G	om-
=11-	=11-
.	.
!LO:TX:t=P:problem=kreska pseudotaktowa	!
0D	-nes
=12-	=12-
.	.
0r	.
=13-	=13-
.	.
!LO:TX:t=P:problem=kreska pseudotaktowa	!
1r	.
!LO:LB:g=original	!
=14-	=14-
2r	.
!LO:TX:t=P:problem=kreska pseudotaktowa	!
2A\	qui
2A\	la-
!LO:TX:t=P:problem=kreska pseudotaktowa	!
2A\	-bo-
=15-	=15-
2.G\	-ra-
4F\	.
1E-X	.
=16-	=16-
!LO:TX:t=P:problem=kreska pseudotaktowa	!
1D,<	-tis
0r	.
=17-	=17-
.	.
!LO:TX:t=P:problem=kreska pseudotaktowa	!
1r	.
=18-	=18-
1D	qui
2D/	la-
2D/	-bo-
=19-	=19-
2.C/	-ra-
4BB-/	.
1AA	.
=20-	=20-
!LO:TX:t=P:problem=kreska pseudotaktowa	!
1GG,<	-tis
2r	.
2B-\	qui
=21-	=21-
2B-\	la-
!LO:TX:t=P:problem=kreska pseudotaktowa	!
2B-\	-bo-
2.A\	-ra-
4G\	.
=22-	=22-
4F\	.
4Eny\	.
!LO:TX:t=P:problem=kreska pseudotaktowa	!
2A\	.
2G,<\	-tis
2G\	qui
=23-	=23-
2B-\	la-
2BB-/	-bo-
1F	-ra-
=24-	=24-
!LO:TX:t=P:problem=kreska pseudotaktowa	!
0BB-	-tis
=25-	=25-
*M3/2	*
2C/	et
2C/	o-
!LO:TX:t=P:problem=kreska pseudotaktowa	!
2C/	-ne-
!LO:LB:g=original	!
=26-	=26-
1F	-ra-
1D\	-ti
=27-	=27-
.	.
!LO:TX:t=P:problem=kreska pseudotaktowa	!
1AA	es-
=28-	=28-
!LO:TX:t=P:problem=kreska pseudotaktowa	!
1.D,<	-tis
=29-	=29-
2C/	et
2C/	o-
!LO:TX:t=P:problem=kreska pseudotaktowa	!
2C/	-ne-
=30-	=30-
1F	-ra-
1D\	-ti
=31-	=31-
.	.
1AA	es-
=32-	=32-
*M2/1	*
*met(C|)	*
2D,<\	-tis
!LO:TX:t=P:problem=kreska pseudotaktowa	!
2D\	et
1G	e-
=33-	=33-
!LO:TX:t=P:problem=kreska pseudotaktowa	!
1F	-go
2r	.
*	*ij
!LO:TX:t=P:problem=kreska pseudotaktowa	!
2BB-/	et
=34-	=34-
1F	e-
2C,</	-go
*	*Xij
!LO:TX:t=P:problem=kreska pseudotaktowa	!
2C/	et
=35-	=35-
1G	e-
2F#X,<\	-go
2G\	re-
=36-	=36-
2.D\	-fi-
!LO:TX:t=P:problem=kreska pseudotaktowa	!
4D\	-ci-
*lig	*
1GG	-am
=37-	=37-
1C	.
*Xlig	*
!LO:TX:t=P:problem=kreska pseudotaktowa	!
1GG,<	vos!
=38-	=38-
0r	.
=39-	=39-
2r	.
2.D/	Tol-
4D/	-li-
!LO:TX:t=P:problem=kreska pseudotaktowa	!
2D/	-te
=40-	=40-
1.Fny	ju-
!LO:TX:t=P:problem=kreska pseudotaktowa	!
2E\	-gum
!LO:LB:g=original	!
=41-	=41-
1F	me-
!LO:TX:t=P:problem=kreska pseudotaktowa	!
1C,<	-um
=42-	=42-
!LO:TX:t=P:problem=kreska pseudotaktowa	!
1r	.
2.BB-/	su-
!LO:TX:t=P:problem=kreska pseudotaktowa	!
4C/	.
=43-	=43-
4D\	.
4E\	.
4F\	.
!LO:TX:t=P:problem=kreska pseudotaktowa	!
4G\	.
2A\	.
!LO:TX:t=P::problem=kreska pseudotaktowa&colon;między nutą a kropką	!
2.B-\	-per
=44-	=44-
.	.
8A\L	.
8G\J	.
2A\	.
!LO:TX:t=P:problem=kreska pseudotaktowa	!
1B-,<	vos!
=45-	=45-
0r	.
=46-	=46-
!LO:TX:t=P:problem=kreska pseudotaktowa	!
1r	.
1BB-	et
=47-	=47-
2.D/	dis-
!LO:TX:t=P:problem=kreska pseudotaktowa	!
4D/	-ci-
2.C/	-te
8BB-/L	.
8AA/J	.
=48-	=48-
!LO:TX:t=P:problem=kreska pseudotaktowa	!
1BB-,<	.
1AA	a
=49-	=49-
!LO:TX:t=P:problem=kreska pseudotaktowa	!
1GG	me.
0r	.
=50-	=50-
.	.
!LO:TX:t=P:problem=kreska pseudotaktowa	!
1r	.
=51-	=51-
1D	qui-
!LO:TX:t=P:problem=kreska pseudotaktowa	!
0E-X	-a
=52-	=52-
.	.
1D	mi-
=53-	=53-
1C	-tis
!LO:TX:t=P:problem=kreska pseudotaktowa	!
1BB-	sum
!LO:LB:g=original	!
=54-	=54-
!LO:TX:t=P:problem=kreska pseudotaktowa	!
00r	.
=55-	=55-
.	.
=56-	=56-
1BB-	et
2.D/	hu-
4D/	-mi-
=57-	=57-
!LO:TX:t=P:problem=kreska pseudotaktowa	!
1AA	-lis
1D	cor-
=58-	=58-
!LO:TX:t=P:problem=kreska pseudotaktowa	!
1C,<	-de,
2r	.
1G\	et
=59-	=59-
.	.
!LO:TX:t=P:problem=kreska pseudotaktowa	!
2G\	in-
2D\	-ve-
!LO:TX:t=P:problem=kreska pseudotaktowa	!
2G\	-ni-
=60-	=60-
2F\	-e-
!LO:TX:t=P:problem=kreska pseudotaktowa	!
2BB-/	-tis
0r	.
=61-	=61-
.	.
!LO:TX:t=P:problem=kreska pseudotaktowa	!
1r	.
=62-	=62-
*lig	*
1BB-	re-
1C	.
*Xlig	*
=63-	=63-
1BB-	-qui-
!LO:TX:t=P:problem=kreska pseudotaktowa	!
1BB-	-em
=64-	=64-
2r	.
1F	a-
2F\	-ni-
=65-	=65-
2C/	-ma-
!LO:TX:t=P:problem=kreska pseudotaktowa	!
2C/	-b(us)
1G	ve-
=66-	=66-
!LO:TX:t=P:problem=kreska pseudotaktowa	!
1D	-stris
1r	.
=67-	=67-
2.C/	a-
4C/	-ni-
2GG/	-ma-
*custos:D	*
!LO:TX:t=P:problem=kreska pseudotaktowa	!
2GG/	-bus
!LO:LB:g=original	!
=68-	=68-
1D	ve-
1GG	-stris
=69-	=69-
*M3/2	*
2.C/	Ju-
(<4D/	.
!LO:TX:t=P:problem=kreska pseudotaktowa	!
2En\)	.
=70-	=70-
2F,<\	-gum
2D\	e-
!LO:TX:t=P:problem=kreska pseudotaktowa	!
2G\	.
=71-	=71-
4F\	-nim
4D\	.
2E-X\	me-
!LO:TX:t=P:problem=kreska pseudotaktowa	!
2D\	-um
=72-	=72-
2BB-/	su-
2F\	-a-
!LO:TX:t=P:problem=kreska pseudotaktowa	!
2C/	-ve
=73-	=73-
!LO:TX:t=P:problem=kreska pseudotaktowa	!
1.D,<	est
=74-	=74-
2BB-/	su-
2F\	-a-
2C/	-ve
=75-	=75-
!LO:TX:t=P:problem=kreska pseudotaktowa	!
1.D	est
=76-	=76-
00.r	.
=77-	=77-
.	.
=78-	=78-
.	.
=79-	=79-
.	.
=80-	=80-
!LO:TX:t=P:problem=kreska pseudotaktowa	!
1.r	.
=81-	=81-
2F\	su-
2C/	-a-
!LO:TX:t=P:problem=kreska pseudotaktowa	!
2GG/	-ve
=82-	=82-
*M2/1	*
*met(C|)	*
!LO:TX:t=P:problem=kreska pseudotaktowa	!
1D	est;
1r	.
=83-	=83-
2r	.
!LO:TX:t=P:problem=kreska pseudotaktowa	!
2A\	et
2B-\	o-
!LO:TX:t=P:problem=kreska pseudotaktowa	!
2G\	-nus
!LO:LB:g=original	!
=84-	=84-
1A	me-
!LO:TX:t=P:problem=kreska pseudotaktowa	!
1D	-um.
=85-	=85-
0r	.
=86-	=86-
2r	.
!LO:TX:t=P:problem=kreska pseudotaktowa	!
2AA/	et
2BB-/	o-
!LO:TX:t=P:problem=kreska pseudotaktowa	!
2GG/	-nus
=87-	=87-
2AA/	me-
!LO:TX:t=P:problem=kreska pseudotaktowa	!
2AA/	-um
2D/	le-
!LO:TX:t=P:problem=kreska pseudotaktowa	!
2BB-,</	-ve
=88-	=88-
1r	.
2r	.
!LO:TX:t=P:problem=kreska pseudotaktowa	!
2D\	et
=89-	=89-
2E-X\	o-
!LO:TX:t=P:problem=kreska pseudotaktowa	!
2C/	-nus
2D\	me-
!LO:TX:t=P:problem=kreska pseudotaktowa	!
2D\	-um
=90-	=90-
2G\	le-
!LO:TX:t=P:problem=kreska pseudotaktowa	!
2C/	-ve
2r	.
!LO:TX:t=P:problem=kreska pseudotaktowa	!
2A\	et
=91-	=91-
2B-\	o-
!LO:TX:t=P:problem=kreska pseudotaktowa	!
2G\	-n(us)
2A\	me-
!LO:TX:t=P:problem=kreska pseudotaktowa	!
2D/	-um
=92-	=92-
1r	.
2r	.
*	*ij
2D\	et
=93-	=93-
2E-X\	o-
2C/	-n(us)
1D	me-
=94-	=94-
!LO:TX:t=P:problem=kreska pseudotaktowa	!
1GG	-um
*	*Xij
1C	le-
=95-	=95-
!LO:TX:b:B:t=O. ad M D. Gm	!
0GGl;	-ve
==	==
*-	*-
!!!RDF**kern: < = below
!!!RDF**kern: l = terminal long
!!!ENC: Andrzej Kubiczek
!!!END: 2021-07-30
!!!ENC: Anastazja Marusiak
!!!END: 2021-07-01
!!!YEC: Copyright 2022 Narodowy Instytut Fryderyka Chopina (https://polishscores.org)
!!!YEM: License CC-BY-4.0 (https://creativecommons.org/licenses/by/4.0)
